(Exported by FreeCAD)
(Post Processor: grbl_post)
(Output Time:2020-08-27 12:00:15.545314)
(Begin preamble)
G17 G90
G21
(Begin operation: Fixture)
(Path: Fixture)
G54
(Finish operation: Fixture)
(Begin operation: T1: 0.10mm end mill)
(Path: T1: 0.10mm end mill)
(T1: 0.10mm end mill)
(Begin toolchange)
(M6 T1.0)
M42
(omit as any S turns on spindle if switch-controlled M3 S0.0)
(Finish operation: T1: 0.10mm end mill)
(Begin operation: Slot)
(Path: Slot)
(Slot)
(Slot)
(Tool type: Undefined)
(Compensated Tool Path. Diameter: 0.1)
()
G0 Z14.000
G0 X520.015 Y800.000
G1 Z8.800 F60.000
G2 X520.015 Y800.000 I-140.015 J0.000 F480.000
G0 X520.015 Y800.000
G1 Z8.600 F60.000
G3 X520.015 Y800.000 I-140.015 J0.000 F480.000
G0 X520.015 Y800.000
G1 Z8.400 F60.000
G2 X520.015 Y800.000 I-140.015 J0.000 F480.000
G0 X520.015 Y800.000
G1 Z8.200 F60.000
G3 X520.015 Y800.000 I-140.015 J0.000 F480.000
G0 X520.015 Y800.000
G1 Z8.000 F60.000
G2 X520.015 Y800.000 I-140.015 J0.000 F480.000
G0 Z12.000
G0 Z14.000
(Finish operation: Slot)
(Begin operation: Slot002)
(Path: Slot002)
(Slot002)
(Slot002)
(Tool type: Undefined)
(Compensated Tool Path. Diameter: 0.1)
()
G0 Z14.000
G0 X650.000 Y800.000
G1 Z8.800 F60.000
G2 X650.000 Y800.000 I-270.000 J0.000 F480.000
G0 X650.000 Y800.000
G1 Z8.600 F60.000
G3 X650.000 Y800.000 I-270.000 J0.000 F480.000
G0 X650.000 Y800.000
G1 Z8.400 F60.000
G2 X650.000 Y800.000 I-270.000 J0.000 F480.000
G0 X650.000 Y800.000
G1 Z8.200 F60.000
G3 X650.000 Y800.000 I-270.000 J0.000 F480.000
G0 X650.000 Y800.000
G1 Z8.000 F60.000
G2 X650.000 Y800.000 I-270.000 J0.000 F480.000
G0 Z12.000
G0 Z14.000
(Finish operation: Slot002)
(Begin postamble)
M5
M43
G17 G90
M2
